X:1100
T:Hamish the Carpenter
R:reel
O:Cape Breton, Canada
H:Also played with single parts.
Z:id:hn-reel-1100
M:C|
L:1/8
K:Ador
A2GE GABd | e2dB degB | A2GE GABd | egdB BAAB |
A2GE GABd | e2dB dega | gedB GABd |1 egdB BAAB :|2 egdB BAA2 ||
|: a2ab a2ge | gaba gedg | eaab a2ge | dBgB BAAB | 
Aaab a2ge | gaba gedg | egab ageg |1 dBgB BAA2 :|2 dBgB BAAB || 

